X:119
T: Shi xiu xie
N: C1613
O: China, Anhui, Wuhu
S: III, 587]
R: Xiaodiao]
M: 2/4
L: 1/16
K: D
B2BAd2A2 | B3AB4 | e3fd4 | BBBdBAF2 | A4BABd | A8
A2ABd4 | BdBAF4 | F2EFA2D2 | E4FEFA | E8

